dist/svg/static/send-to-vehicle-large.svg

<svg xmlns="http://www.w3.org/2000/svg" width="48" height="48" viewBox="0 0 48 48"><g fill="none" stroke="currentColor" stroke-miterlimit="10"><path d="M11.5 43v-1.1c0-3.5-2.9-6.4-6.4-6.4H4M19.5 43c0-8.6-6.611-15.5-15.5-15.5M17 22.2c-3.594-2.354-8.219-3.851-13-3.7M29.5 43c0-4.8-1.222-9.666-4-13.3"/><g><path d="M22 13.5h2.4M21.8 16.5s.8.2 1.9.5c.9.3 1.3.5 1.4 1.4.2 1.1.6 1.6-1.1 1.3s-2.5-.7-2.5-.7M44 13.5h-2.374M44.2 16.5s-.8.2-1.9.5c-.9.3-1.3.5-1.4 1.4-.2 1.1-.6 1.6 1.1 1.3s2.5-.6 2.5-.6"/><path d="M40.5 25.401h2.9c.5 0 1.1-.4 1.1-1v-4.8c0-3.8-.7-4.2-.7-4.2l-1.5-1.1s-.8-.7-1.6-2.4c-.7-1.5-2.1-1.4-2.1-1.4H27.4s-1.4-.1-2.1 1.4c-.8 1.7-1.6 2.5-1.6 2.5l-1.5 1.1s-.7.4-.7 4.2v4.8c0 .5.5 1 1.1 1h2.9v-2h15v1.9z"/><path d="M29.2 18.5h7.7l1.5 1-1.5 2h-7.7l-1.6-2zM42.559 14.5H23.571"/></g></g></svg>

<?xml version="1.0" encoding="UTF-8" standalone="no"?>
<svg width="48px" height="48px" viewBox="0 0 48 48" version="1.1" xmlns="http://www.w3.org/2000/svg" xmlns:xlink="http://www.w3.org/1999/xlink">
    <!-- Generator: sketchtool 46.2 (44496) - http://www.bohemiancoding.com/sketch -->
    <title>send-to-vehicle-large</title>
    <desc>Created with sketchtool.</desc>
    <defs></defs>
    <g id="icons-published" stroke="none" stroke-width="1" fill="none" fill-rule="evenodd">
        <g id="briefing" transform="translate(-3456.000000, -1562.000000)"></g>
        <g id="send-to-vehicle-large" stroke="#000000">
            <path d="M11.5,43 L11.5,41.9 C11.5,38.4 8.6,35.5 5.1,35.5 L4,35.5 M19.5,43 C19.5,34.4 12.9,27.5 4,27.5 M17,22.2 C13.4,19.8 8.8,18.3 4,18.5 M29.5,43 C29.5,38.2 28.3,33.3 25.5,29.7" id="Shape"></path>
            <path d="M22,13.5 L24.4,13.5 M21.8,16.5 C21.8,16.5 22.6,16.7 23.7,17 C24.6,17.3 25,17.5 25.1,18.4 C25.3,19.5 25.7,20 24,19.7 C22.3,19.4 21.5,19 21.5,19 M44,13.5 L41.6,13.5 M44.2,16.5 C44.2,16.5 43.4,16.7 42.3,17 C41.4,17.3 41,17.5 40.9,18.4 C40.7,19.5 40.3,20 42,19.7 C43.7,19.4 44.5,19.1 44.5,19.1" id="Shape"></path>
            <path d="M40.5,25.4 L43.4,25.4 C43.9,25.4 44.5,25 44.5,24.4 L44.5,19.6 C44.5,15.8 43.8,15.4 43.8,15.4 L42.3,14.3 C42.3,14.3 41.5,13.6 40.7,11.9 C40,10.4 38.6,10.5 38.6,10.5 L27.4,10.5 C27.4,10.5 26,10.4 25.3,11.9 C24.5,13.6 23.7,14.4 23.7,14.4 L22.2,15.5 C22.2,15.5 21.5,15.9 21.5,19.7 L21.5,24.5 C21.5,25 22,25.5 22.6,25.5 L25.5,25.5 L25.5,23.5 L40.5,23.5 C40.5,23.5 40.5,25.4 40.5,25.4 Z" id="Shape"></path>
            <path d="M29.2,18.5 L36.9,18.5 L38.4,19.5 L36.9,21.5 L29.2,21.5 L27.6,19.5 L29.2,18.5 Z M42.6,14.5 L23.6,14.5 L42.6,14.5 Z" id="Shape"></path>
        </g>
    </g>
</svg>
